app/img/tour-support-icon.svg

<svg width="25" height="25" viewBox="0 0 25 25" fill="none" xmlns="http://www.w3.org/2000/svg">
<path d="M12.5 0C5.6125 0 0 5.6125 0 12.5V15V20V21.25C0 23.3125 1.6875 25 3.75 25H5C7.0625 25 8.75 23.3125 8.75 21.25V17.5C8.75 15.4375 7.0625 13.75 5 13.75H2.5V12.5C2.5 6.9875 6.9875 2.5 12.5 2.5C18.0125 2.5 22.5 6.9875 22.5 12.5V13.75H20C17.9375 13.75 16.25 15.4375 16.25 17.5V21.25C16.25 23.3125 17.9375 25 20 25H21.25C23.3125 25 25 23.3125 25 21.25V20V15V12.5C25 5.6125 19.3875 0 12.5 0ZM5 16.25C5.6875 16.25 6.25 16.8125 6.25 17.5V21.25C6.25 21.9375 5.6875 22.5 5 22.5H3.75C3.0625 22.5 2.5 21.9375 2.5 21.25V20V16.25H5ZM22.5 21.25C22.5 21.9375 21.9375 22.5 21.25 22.5H20C19.3125 22.5 18.75 21.9375 18.75 21.25V17.5C18.75 16.8125 19.3125 16.25 20 16.25H22.5V20V21.25Z" fill="#FFC01E"/>
</svg>

<svg width="25" height="25" fill="none" xmlns="http://www.w3.org/2000/svg"><path d="M12.5 0C5.612 0 0 5.612 0 12.5v8.75A3.761 3.761 0 003.75 25H5a3.761 3.761 0 003.75-3.75V17.5A3.761 3.761 0 005 13.75H2.5V12.5c0-5.513 4.487-10 10-10 5.512 0 10 4.487 10 10v1.25H20a3.761 3.761 0 00-3.75 3.75v3.75A3.761 3.761 0 0020 25h1.25A3.761 3.761 0 0025 21.25V12.5C25 5.612 19.387 0 12.5 0zM5 16.25c.688 0 1.25.563 1.25 1.25v3.75c0 .688-.563 1.25-1.25 1.25H3.75c-.688 0-1.25-.563-1.25-1.25v-5H5zm17.5 5c0 .688-.563 1.25-1.25 1.25H20c-.688 0-1.25-.563-1.25-1.25V17.5c0-.688.563-1.25 1.25-1.25h2.5v5z" fill="#FFC01E"/></svg>
